X: 408
T: Kelian guanggur mei laopuo
%%abc-version 2.0
%%abcx-abcm2ps-target-version 5.9.1 (29 Sep 2008)
%%abc-creator hum2abc beta
%%abcx-conversion-date 2013/10/02 07:52:30
%%abc-edited-by Helmut Schaffrath
%%humdrum-veritas 657270754
%%humdrum-veritas-data 1940951637
%%continueall 1
%%barnumbers 0
L: 1/8
M: 2/4
K: C
dD2d [I:setbarnb 1]| 
d> e d c | 
dD2d | 
c4 | 
dD2d | 
d> e d c | 
c A F G/ F/ | 
D4 |]  



